src/actions/24/tools-media-optical-copy.svg

<svg xmlns="http://www.w3.org/2000/svg" viewBox="0 0 24 24">
  <defs id="defs3051">
    <style type="text/css" id="current-color-scheme">
      .ColorScheme-Text {
        color:#363636;
      }
      </style>
  </defs>
 <path style="fill:currentColor;fill-opacity:1;stroke:none" 
     d="M 12 4 C 7.568 4 4 7.568 4 12 C 4 16.432 7.568 20 12 20 C 12.692084 20 13.360349 19.90395 14 19.740234 L 14 18.707031 C 13.366247 18.894565 12.696167 19 12 19 C 8.122 19 5 15.878 5 12 C 5 8.122 8.122 5 12 5 C 15.878 5 19 8.122 19 12 C 19 12.696167 18.894565 13.366247 18.707031 14 L 19.740234 14 C 19.903948 13.360349 20 12.692084 20 12 C 20 7.568 16.432 4 12 4 z M 12 6 C 8.676004 6 6 8.676 6 12 L 9 12 C 9 10.338 10.338002 9 12 9 L 12 6 z M 12 10 C 10.892001 10 10 10.892 10 12 C 10 13.108 10.892001 14 12 14 C 13.107999 14 14 13.108 14 12 C 14 10.892 13.107999 10 12 10 z M 12 11 C 12.553999 11 13 11.446 13 12 C 13 12.554 12.553999 13 12 13 C 11.446001 13 11 12.554 11 12 C 11 11.446 11.446001 11 12 11 z M 15 12 C 15 12.773297 14.70179 13.469123 14.224609 14 L 17.652344 14 C 17.872755 13.373894 18 12.703344 18 12 L 15 12 z M 14 14.224609 C 13.469123 14.70179 12.773296 15 12 15 L 12 18 C 12.703343 18 13.373894 17.872755 14 17.652344 L 14 14.224609 z M 17.5 15 C 16.115 15 15 16.115 15 17.5 C 15 18.885 16.115 20 17.5 20 C 18.885 20 20 18.885 20 17.5 C 20 16.115 18.885 15 17.5 15 z M 17.5 16 C 18.331 16 19 16.669 19 17.5 C 19 18.331 18.331 19 17.5 19 C 16.669 19 16 18.331 16 17.5 C 16 16.669 16.669 16 17.5 16 z M 17.5 17 C 17.223 17 17 17.223 17 17.5 C 17 17.777 17.223 18 17.5 18 C 17.777 18 18 17.777 18 17.5 C 18 17.223 17.777 17 17.5 17 z "
     class="ColorScheme-Text"
     />
</svg>

<svg xmlns="http://www.w3.org/2000/svg" viewBox="0 0 24 24">
    <path d="M12 4c-4.432 0-8 3.568-8 8a7.982 7.982 0 0 0 10 7.74v-1.033A7.034 7.034 0 0 1 12 19c-3.878 0-7-3.122-7-7s3.122-7 7-7 7 3.122 7 7c0 .696-.105 1.366-.293 2h1.033A7.982 7.982 0 0 0 12 4zm0 2c-3.324 0-6 2.676-6 6h3c0-1.662 1.338-3 3-3V6zm0 4c-1.108 0-2 .892-2 2s.892 2 2 2 2-.892 2-2-.892-2-2-2zm0 1c.554 0 1 .446 1 1s-.446 1-1 1-1-.446-1-1 .446-1 1-1zm3 1c0 .773-.298 1.47-.775 2h3.427c.22-.626.348-1.297.348-2h-3zm-1 2.225A2.979 2.979 0 0 1 12 15v3c.703 0 1.374-.127 2-.348v-3.427zm3.5.775a2.495 2.495 0 0 0-2.5 2.5c0 1.385 1.115 2.5 2.5 2.5s2.5-1.115 2.5-2.5-1.115-2.5-2.5-2.5zm0 1c.831 0 1.5.669 1.5 1.5s-.669 1.5-1.5 1.5-1.5-.669-1.5-1.5.669-1.5 1.5-1.5zm0 1a.499.499 0 1 0 0 1 .499.499 0 1 0 0-1z" style="fill:currentColor;fill-opacity:1;stroke:none;color:#050505;opacity:.7"/>
</svg>
